app/dist/common/images/citi-trends.svg

<svg fill="none" height="18" width="18" xmlns="http://www.w3.org/2000/svg"><path d="m0 0h18v18h-18z" fill="#4baac6"/><path d="m7.08 5c-1.43 0-2.071.894-2.071 1.997v4.01c-.002.06 0 .177 0 .177 0 1.104.874 1.816 2.002 1.816s1.989-.79 1.989-1.956v-1.044h-1v1.055c0 .507-.472.913-.989.913s-1.011-.403-1.011-.986v-3.945c0-.58.333-1.037 1.011-1.037s.989.454.989 1.118v.882h1v-.867c-.006-1.173-.542-2.133-1.92-2.133z" fill="#fff"/><path clip-rule="evenodd" d="m13.65 5h-4.278v1h1.628v7h1v-7h1.65z" fill="#fee774" fill-rule="evenodd"/></svg>

<!-- by TradingView --><svg width="18" height="18" fill="none" xmlns="http://www.w3.org/2000/svg"><path fill="#4BAAC6" d="M0 0h18v18H0z"/><path d="M7.08 5c-1.43 0-2.071.894-2.071 1.997v4.01c-.002.06 0 .177 0 .177 0 1.104.874 1.816 2.002 1.816C8.139 13 9 12.21 9 11.044V10H8v1.055c0 .507-.472.913-.989.913S6 11.565 6 10.982V7.037C6 6.457 6.333 6 7.011 6 7.689 6 8 6.454 8 7.118V8h1v-.867C8.994 5.96 8.458 5 7.08 5z" fill="#fff"/><path fill-rule="evenodd" clip-rule="evenodd" d="M13.65 5H9.372v1H11v7h1V6h1.65V5z" fill="#FEE774"/></svg>
